X:993
T:Humours Of Carrigaholt, The
R:reel
Z:id:hn-reel-993
M:C|
L:1/8
K:Dmix
dcAF G2AG | F2DE FGAB | cBAF G2FG | Add^c defe |
dcAF GBAG | FDDE FGAB | cBAF G2FG | Add^c d3e ||
fdde fdgf | ed^cd efge | fd~d2 fdgf | ed^cd e3g |
fdde fagf | ed^cd efge | agfa gfe^c | dfe^c defe ||

